X:1
T:Wm. Edie Marks
T:James Rowe
T:Just the Love of Jesus
%%score { ( 1 2 ) | ( 3 4 ) }
L:1/8
M:4/4
K:Bb
V:1 treble 
V:2 treble 
V:3 bass 
V:4 bass 
V:1
{/x} F>GF>E D>FB>d | d2 c2 c4 | c>dc>B A2 G2 | F>GF>E D2 F2 | F>GF>E D>FB>d | c2 A2 c4 | %6
w: What is mak\- ing life so sweet and|bright to me?|Just the love of Je\- sus,|just the love of Je\- sus!|What has made my soul so peace\- ful,|pure and free?|
w: What af\- fords me shel\- ter when the|tem\- pest sweeps?|Just the love of Je\- sus,|just the love of Je\- sus!|What, from day to day, my soul from|e\- vil keeps?|
w: What will help me tri\- umph in this|earth\- ly strife?|Just the love of Je\- sus,|just the love of Je\- sus!|What is more to me than wealth, or|fame, or life?|
w: What will lead me safe a\- cross the|si\- lent sea?|Just the love of Je\- sus,|just the love of Je\- sus!|What will be my song thro' all e\-|ter\- ni\- ty?|
 c>ec>B A2 B>A | G4 F4 |"^Chorus" d>ed>c B2 d2 | d2 c2 c4 | c>dc>B A2 G2 | G>FF>F F4 | %12
w: Just the love of Je\- sus, my|Sav\- ior!|Just the love of Je\- sus,|O how sweet!|Just the love of Je\- sus|makes my joy com\- plete;|
w: ||||||
w: ||||||
w: ||||||
 d>ed>c B2 df | f2 e2 e4 | d>ed>c B2 A>B | (d2 c2) B4 |] %16
w: What will guide my soul to that|safe re\- treat?|Just the love of Je\- sus, my|Sav\- * ior!|
w: ||||
w: ||||
w: ||||
V:2
 D>DC>C B,>DD>F | F2 E2 E4 | E>FE>F E2 E2 | D>ED>C B,2 D2 | D>ED>C B,>DD>F | F2 F2 F4 | %6
 F>=EF>E E2 E>E | =E4 F_E E2 | F>GF>E D2 F2 | F2 E2 E4 | E>FE>F E2 E2 | D>DD>E D4 | F>GF>E D2 F_A | %13
 G2 G2 G4 | F>FF>F F2 F>F | F2 E2 D4 |] %16
V:3
 B,>B,B,>F, F,>B,B,>B, | B,2 A,2 A,4 | A,>B,A,>E C2 A,2 | B,>B,B,>F, F,2 B,2 | %4
 B,>B,B,>F, F,>B,B,>B, | A,2 C2 A,4 | A,>B,A,>D C2 D>C | B,4 A,4 | B,>B,B,>B, B,2 B,2 | %9
 B,2 A,2 A,4 | A,>B,A,>D C2 A,2 | B,>B,D>C B,4 | B,>B,B,>B, B,2 B,B, | B,2 B,2 B,4 | %14
 B,>CB,>E D2 C>D | (B,2 A,2) B,4 |] %16
V:4
 B,,>B,,B,,>B,, B,,>B,,B,,>B,, | F,2 F,2 F,4 | F,>F,F,>F, F,2 F,2 | B,,>B,,B,,>B,, B,,2 B,,2 | %4
 B,,>B,,B,,>B,, B,,>B,,B,,>B,, | C,2 C,2 C,4 | C,>C,C,>C, C,2 C,>C, | C,4 F,4 | %8
 B,,>B,,B,,>B,, B,,2 B,,2 | F,2 F,2 F,4 | F,>F,F,>F, F,2 F,2 | B,,>B,,B,,>B,, B,,4 | %12
 B,,>B,,B,,>B,, B,,2 B,,D, | E,2 E,2 E,4 | F,>F,F,>F, F,2 F,>F, | F,4 D,4 |] %16

